dist/img/svg/box.svg

<svg xmlns="http://www.w3.org/2000/svg" width="73.15" height="74.439" viewBox="0 0 73.15 74.439"><g id="Group_689" data-name="Group 689" transform="translate(-1.471 -.566)"><g id="Group_688" data-name="Group 688" transform="translate(1.471 .566)"><path id="Path_1054" data-name="Path 1054" d="M28.474 25.231a1.733 1.733 0 00.465 1.911l13.122 11.733a1.731 1.731 0 002.359-.045L56.578 27.1a1.734 1.734 0 00-1.2-2.981h-6.166V2.3A1.733 1.733 0 0047.478.566h-9.423A1.733 1.733 0 0036.321 2.3v21.815h-6.226a1.735 1.735 0 00-1.621 1.116zm9.581 2.352a1.733 1.733 0 001.734-1.734V4.034h5.956v21.815a1.733 1.733 0 001.734 1.734h3.6l-7.91 7.633-8.536-7.633h3.42z" transform="translate(-6.159 -.566)"/><path id="Path_1055" data-name="Path 1055" d="M73.75 45.5l-9.621-5.522 9.621-5.524a1.733 1.733 0 00-.087-3.054l-22.6-11.3a1.733 1.733 0 10-1.551 3.1l19.7 9.853-8.632 4.956-5.462-2.732a1.733 1.733 0 10-1.551 3.1l3.191 1.6-18.714 9.359-18.718-9.358 3.6-1.8a1.734 1.734 0 10-1.55-3.1l-5.868 2.934-8.635-4.957 19.7-9.852a1.733 1.733 0 10-1.551-3.1L2.43 31.4a1.733 1.733 0 00-.087 3.054l9.626 5.524L2.343 45.5a1.733 1.733 0 00.087 3.054L13.717 54.2v11.147a1.733 1.733 0 00.958 1.55l22.6 11.3a1.664 1.664 0 001.53-.007c.007 0 .015.012.021.008l22.6-11.3a1.732 1.732 0 00.958-1.55V54.2l11.286-5.643a1.734 1.734 0 00.08-3.057zm-58.242-3.555l5.678 2.839 13.194 6.6-8.634 4.954L6.873 46.9zm1.676 13.985l7.842 3.922a1.74 1.74 0 001.638-.046l9.649-5.536v19.57l-19.129-9.564zm41.726 8.346L39.781 73.84V54.268l9.646 5.538a1.744 1.744 0 001.64.046l7.843-3.922zm-8.563-7.941l-8.633-4.955 18.876-9.437 8.629 4.957z" transform="translate(-1.471 -3.939)"/></g></g></svg>

<svg xmlns="http://www.w3.org/2000/svg" width="73.15" height="74.439" viewBox="0 0 73.15 74.439">
  <g id="Group_689" data-name="Group 689" transform="translate(-1.471 -0.566)">
    <g id="Group_688" data-name="Group 688" transform="translate(1.471 0.566)">
      <path id="Path_1054" data-name="Path 1054" d="M28.474,25.231a1.733,1.733,0,0,0,.465,1.911L42.061,38.875a1.731,1.731,0,0,0,2.359-.045L56.578,27.1a1.734,1.734,0,0,0-1.2-2.981H49.212V2.3A1.733,1.733,0,0,0,47.478.566H38.055A1.733,1.733,0,0,0,36.321,2.3V24.115H30.095A1.735,1.735,0,0,0,28.474,25.231Zm9.581,2.352a1.733,1.733,0,0,0,1.734-1.734V4.034h5.956V25.849a1.733,1.733,0,0,0,1.734,1.734h3.6l-7.91,7.633-8.536-7.633h3.42Z" transform="translate(-6.159 -0.566)"/>
      <path id="Path_1055" data-name="Path 1055" d="M73.75,45.5l-9.621-5.522,9.621-5.524a1.733,1.733,0,0,0-.087-3.054l-22.6-11.3a1.733,1.733,0,1,0-1.551,3.1l19.7,9.853-8.632,4.956-5.462-2.732a1.733,1.733,0,1,0-1.551,3.1l3.191,1.6L38.044,49.336,19.326,39.978l3.6-1.8a1.734,1.734,0,1,0-1.55-3.1l-5.868,2.934L6.873,33.055l19.7-9.852a1.733,1.733,0,1,0-1.551-3.1L2.43,31.4a1.733,1.733,0,0,0-.087,3.054l9.626,5.524L2.343,45.5a1.733,1.733,0,0,0,.087,3.054L13.717,54.2V65.347a1.733,1.733,0,0,0,.958,1.55l22.6,11.3a1.664,1.664,0,0,0,1.53-.007c.007,0,.015.012.021.008l22.6-11.3a1.732,1.732,0,0,0,.958-1.55V54.2l11.286-5.643A1.734,1.734,0,0,0,73.75,45.5ZM15.508,41.945l5.678,2.839,13.194,6.6-8.634,4.954L6.873,46.9ZM17.184,55.93l7.842,3.922a1.74,1.74,0,0,0,1.638-.046l9.649-5.536V73.84L17.184,64.276ZM58.91,64.276,39.781,73.84V54.268l9.646,5.538a1.744,1.744,0,0,0,1.64.046L58.91,55.93Zm-8.563-7.941L41.714,51.38,60.59,41.943,69.219,46.9Z" transform="translate(-1.471 -3.939)"/>
    </g>
  </g>
</svg>
